X: 30
T: No_125_The_Sun_Rises_Over_the_Mountain.krn
N: Derived from No_125_The_Sun_Rises_Over_the_Mountain.krn
%%abc-version 2.0
%%abcx-abcm2ps-target-version 5.9.1 (29 Sep 2008)
%%abc-creator hum2abc beta
%%abcx-conversion-date 2019/03/15 08:37:56
%%humdrum-veritas 1174300946
%%humdrum-veritas-data 3014463996
%%linebreak <none>
%%barnumbers 0
L: 1/8
M: 3/4
K: B clef=bass
[K:clef=bass][M:3/4]C3C CC ||  
[M:2/4]C3A,/G,/ | 
C2C3/A,/ ||  
[M:3/4]G,3/G,/G,2F, z ||  
[M:2/4]G,B, B,3/G,/ ||  
[M:3/4]F,3/F,/F,2D, z ]|:  
[M:2/4]F,G, G,/F,3/ | 
G,/E,3/ (E,/B,,3/) ||  
[M:3/4](3F,E,F, F,/E,3/ G,E, | 
F,2z2G,E, | 
F,3F, F,E, ||  
[M:2/4]F,2z2 | 
F,3/F,/ F,B,, | 
F,3/F,/F,2- | 
F,4 | 
G,C C3/B,/ ||  
[M:3/4]G,G, G,G, G,F, ||  
[M:2/4]G,B, B,3/G,/ ||  
[M:3/4]F,F, F,F, F,E, :|]  



